X:1
T:Alexander Walker's
T:Alexander Walker's
T:Alexander Walker
C:Alexander Walker
L:1/8
M:2/2
K:D
V:1 treble 
V:1
 F | A2 AF ADDF | EFGA B3 d | A2 AF Dgfe | dBAd FDD :| g | fdad fada | gebe geeg | fdad faef | %9
 dBAd FDDg | fdad fada | gebe geeg | fdef dB AF | GBAc dDD || %14

